assets/skill/back-nodejs.svg

<svg width="57" height="57" viewBox="0 0 57 57" fill="none" xmlns="http://www.w3.org/2000/svg">
<rect x="-0.00317383" width="56.7516" height="56.7516" rx="8.25478" fill="url(#paint0_linear_92_679)"/>
<path d="M28.3727 50.9471C27.7637 50.9474 27.1653 50.7872 26.6379 50.4828L21.1175 47.2147C20.2936 46.7536 20.6951 46.5908 20.9676 46.4957C21.8438 46.225 22.6827 45.8458 23.465 45.3671C23.5304 45.3368 23.6025 45.3237 23.6745 45.3291C23.7464 45.3344 23.8158 45.3581 23.8761 45.3977L28.1179 47.9177C28.1969 47.9595 28.2849 47.9813 28.3743 47.9813C28.4636 47.9813 28.5517 47.9595 28.6306 47.9177L45.1724 38.3699C45.2498 38.3235 45.3139 38.2578 45.3582 38.1792C45.4026 38.1007 45.4258 38.0119 45.4256 37.9217V18.8228C45.4256 18.7312 45.4021 18.641 45.3572 18.5611C45.3123 18.4812 45.2475 18.4142 45.1692 18.3666L28.6274 8.82681C28.5494 8.78287 28.4614 8.7598 28.3719 8.7598C28.2823 8.7598 28.1943 8.78287 28.1163 8.82681L11.5842 18.3698C11.5053 18.4164 11.4399 18.4826 11.3941 18.562C11.3483 18.6414 11.3239 18.7312 11.323 18.8228V37.9136C11.3232 38.0036 11.3474 38.092 11.393 38.1696C11.4386 38.2472 11.5041 38.3114 11.5826 38.3554L16.1195 40.9737C18.5782 42.2022 20.084 40.7544 20.084 39.3002V20.4512C20.084 20.3229 20.135 20.1999 20.2257 20.1092C20.3164 20.0185 20.4394 19.9675 20.5677 19.9675H22.6637C22.7919 19.9675 22.915 20.0185 23.0057 20.1092C23.0964 20.1999 23.1473 20.3229 23.1473 20.4512V39.3018C23.1473 42.5827 21.361 44.461 18.2493 44.461C16.9069 44.4844 15.5855 44.1254 14.4395 43.4259L10.0912 40.9318C9.56338 40.6244 9.12537 40.1839 8.82096 39.6543C8.51655 39.1247 8.35639 38.5245 8.35646 37.9136V18.8228C8.35489 18.211 8.51437 17.6096 8.81889 17.0789C9.12341 16.5483 9.56223 16.1072 10.0912 15.7998L26.6347 6.2488C27.1676 5.95725 27.7652 5.80444 28.3727 5.80444C28.9801 5.80444 29.5778 5.95725 30.1107 6.2488L46.6525 15.7998C47.1803 16.1066 47.6184 16.5465 47.9231 17.0755C48.2278 17.6046 48.3884 18.2043 48.3889 18.8148V37.9136C48.388 38.5245 48.2272 39.1244 47.9226 39.6539C47.618 40.1834 47.1801 40.6239 46.6525 40.9318L30.1107 50.4828C29.5823 50.7877 28.9828 50.9478 28.3727 50.9471Z" fill="#83CD29"/>
<path d="M25.2354 31.5241C25.2354 31.3958 25.2863 31.2728 25.377 31.1821C25.4677 31.0914 25.5908 31.0404 25.719 31.0404H27.8585C27.9728 31.0408 28.0833 31.0817 28.1704 31.1557C28.2574 31.2298 28.3154 31.3323 28.3341 31.4451C28.6566 33.6233 29.6239 34.7212 33.998 34.7212C37.4821 34.7212 38.967 33.9328 38.967 32.0836C38.967 31.0179 38.5462 30.2262 33.1306 29.6958C28.6034 29.2476 25.8045 28.2448 25.8045 24.6269C25.8045 21.2895 28.6179 19.2983 33.3337 19.2983C38.6332 19.2983 41.2564 21.1379 41.5885 25.0847C41.5936 25.1506 41.5851 25.2169 41.5636 25.2794C41.5421 25.3418 41.508 25.3993 41.4634 25.4481C41.4188 25.4969 41.3647 25.536 41.3045 25.5631C41.2442 25.5902 41.179 25.6046 41.1129 25.6055H38.9589C38.8509 25.604 38.7464 25.5663 38.6623 25.4985C38.5781 25.4307 38.5191 25.3367 38.4946 25.2315C37.9803 22.9404 36.7211 22.2085 33.3354 22.2085C29.5304 22.2085 29.0887 23.5338 29.0887 24.5269C29.0887 25.7296 29.611 26.0811 34.7477 26.7599C39.8312 27.4322 42.2463 28.3834 42.2463 31.9562C42.2463 35.5612 39.2411 37.6249 33.9996 37.6249C26.7525 37.6346 25.2354 34.3117 25.2354 31.5241Z" fill="#83CD29"/>
<defs>
<linearGradient id="paint0_linear_92_679" x1="28.3726" y1="0" x2="28.3726" y2="56.7516" gradientUnits="userSpaceOnUse">
<stop stop-color="#FDFDFD"/>
<stop offset="1" stop-color="#F5F4F4"/>
</linearGradient>
</defs>
</svg>

<svg xmlns="http://www.w3.org/2000/svg" width="57" height="57" fill="none" viewBox="0 0 57 57"><rect width="56.752" height="56.752" x="-.003" fill="url(#paint0_linear_92_679)" rx="8.255"/><path fill="#83cd29" d="M28.373 50.947c-.61 0-1.208-.16-1.735-.464l-5.52-3.268c-.824-.461-.423-.624-.15-.72.876-.27 1.715-.65 2.497-1.128a.42.42 0 0 1 .411.03l4.242 2.52a.55.55 0 0 0 .513 0l16.541-9.547a.52.52 0 0 0 .254-.448v-19.1a.53.53 0 0 0-.257-.455l-16.542-9.54a.52.52 0 0 0-.51 0L11.583 18.37a.53.53 0 0 0-.261.453v19.09a.51.51 0 0 0 .26.442l4.536 2.619c2.46 1.228 3.965-.22 3.965-1.674V20.451a.484.484 0 0 1 .484-.483h2.096a.484.484 0 0 1 .483.483v18.85c0 3.282-1.786 5.16-4.898 5.16a7.1 7.1 0 0 1-3.81-1.035l-4.348-2.494a3.49 3.49 0 0 1-1.735-3.018V18.823A3.49 3.49 0 0 1 10.09 15.8l16.544-9.551a3.62 3.62 0 0 1 3.476 0l16.542 9.55a3.49 3.49 0 0 1 1.736 3.016v19.099a3.5 3.5 0 0 1-1.736 3.018l-16.542 9.55a3.47 3.47 0 0 1-1.738.465"/><path fill="#83cd29" d="M25.235 31.524a.484.484 0 0 1 .484-.484h2.14a.484.484 0 0 1 .475.405c.323 2.178 1.29 3.276 5.664 3.276 3.484 0 4.969-.788 4.969-2.637 0-1.066-.42-1.858-5.836-2.388-4.528-.448-7.326-1.451-7.326-5.07 0-3.337 2.813-5.328 7.529-5.328 5.3 0 7.922 1.84 8.255 5.787a.484.484 0 0 1-.476.52h-2.154a.48.48 0 0 1-.464-.373c-.515-2.292-1.774-3.023-5.16-3.023-3.805 0-4.246 1.325-4.246 2.318 0 1.203.522 1.554 5.659 2.233 5.083.672 7.498 1.623 7.498 5.196 0 3.605-3.005 5.669-8.246 5.669-7.247.01-8.765-3.313-8.765-6.1"/><defs><linearGradient id="paint0_linear_92_679" x1="28.373" x2="28.373" y1="0" y2="56.752" gradientUnits="userSpaceOnUse"><stop stop-color="#fdfdfd"/><stop offset="1" stop-color="#f5f4f4"/></linearGradient></defs></svg>
